icons/box-open-two-color.svg

<?xml version="1.0" encoding="UTF-8"?><svg xmlns="http://www.w3.org/2000/svg" viewBox="0 0 50 50"><g id="uuid-88af027f-9895-49c8-8e11-489b07a4f4c5"><polygon points="49.46 13.54 33.94 5.85 28.41 8.54 44.3 16.2 49.46 13.54" fill="#ffcd00"/><path d="M44.31,17.32l-16.35,8.43c-.41,.17-.82,.34-1.23,.51-.31-.17-.62-.35-.94-.52-.2,.1-.4,.21-.6,.31h0l.6-.31-15.7-8.28-6.29,3.07,5.27,2.69,.33,.17v1.2h.02v15.08l16.87,8.24c.16,.09,.32,.18,.48,.28,.17-.09,.35-.19,.52-.28l16.81-8.32v-13.6c.01-1,.03-2,.04-2.99l.18-.1,5.4-2.96-5.41-2.61Z" fill="#ffcd00"/><polygon points="24.58 7.81 19.5 5.36 4 13.12 10.12 16.34 10.93 15.94 9.47 15.17 24.58 7.81" fill="#ffcd00"/><path d="M49.28,17.7l-5.6-2.7,5.37-2.77c.17-.09,.27-.26,.27-.45s-.11-.36-.28-.44L32.42,3.1c-.14-.07-.3-.07-.44,0l-6.46,3.15-7.55-3.64c-.14-.07-.3-.07-.44,0L.93,10.91c-.17,.08-.27,.25-.28,.44s.1,.36,.27,.45l6.33,3.34L.72,18.32c-.17,.08-.28,.26-.28,.45,0,.19,.1,.36,.27,.45l5.97,3.05s-.01,.05-.01,.08v15.88c0,.19,.11,.37,.28,.45l17.87,8.73h.01c.06,.03,.13,.05,.21,.05s.14-.02,.21-.05h.01l17.81-8.81c.17-.08,.28-.26,.28-.45V21.85l5.95-3.26c.16-.09,.26-.26,.26-.45,0-.19-.11-.36-.28-.44ZM32.19,4.1l15.52,7.69-5.16,2.66-15.89-7.66,5.53-2.69Zm-7.05,19.33L9.47,15.17,25.52,7.35l15.92,7.68-16.3,8.4ZM2.25,11.37L17.75,3.61l6.62,3.19L8.37,14.59l-6.12-3.23Zm6.1,4.35l15.7,8.28-5.86,3.02-10.87-5.54-5.27-2.69,6.29-3.07Zm-.68,7.05l10.3,5.25c.14,.07,.31,.07,.46,0l6.12-3.15v21.29L7.67,37.91v-15.15Zm34.68,15.06l-16.81,8.32V24.77l6.11,3.22c.15,.08,.33,.08,.47,0l10.23-5.6v15.43Zm.22-16.69l-10.69,5.85-5.67-2.99,16.35-8.43,5.41,2.61-5.4,2.96Z"/></g><g id="uuid-7a7dcde1-259a-44bf-8d75-3fcf6bab6ff5"><text transform="translate(0 55.01)" font-family="Roboto-Regular, Roboto" font-size="6"><tspan x="0" y="0">b</tspan><tspan x="3.37" y="0" letter-spacing="-.01em">o</tspan><tspan x="6.73" y="0">x-open</tspan></text></g></svg>

<svg xmlns="http://www.w3.org/2000/svg" viewBox="0 0 50 50"><g id="f635b5dc-932d-43a5-a955-c4a6c6e316df" data-name="ICONS"><polygon points="49.46 13.54 33.94 5.85 28.41 8.54 44.3 16.2 49.46 13.54" fill="#fdd600"/><path d="M44.31,17.32,28,25.75l-1.23.51-.94-.52-.6.31h0l.6-.31L10.1,17.46,3.81,20.53l5.26,2.68.33.17v1.2h0V39.66L26.29,47.9l.48.28.52-.28,16.82-8.32V26l0-3,.18-.09,5.4-3Z" fill="#fdd600"/><polygon points="24.58 7.81 19.5 5.36 4 13.12 10.12 16.34 10.94 15.94 9.47 15.17 24.58 7.81" fill="#fdd600"/><path d="M49.28,17.7,43.68,15l5.37-2.77a.5.5,0,0,0,.27-.45.49.49,0,0,0-.28-.44L32.42,3.1a.49.49,0,0,0-.44,0L25.52,6.24,18,2.6a.49.49,0,0,0-.44,0L.93,10.91a.49.49,0,0,0-.28.44.5.5,0,0,0,.27.45l6.33,3.33L.72,18.32a.49.49,0,0,0-.28.44.47.47,0,0,0,.27.45l6,3.05s0,0,0,.08V38.22a.5.5,0,0,0,.28.45L24.82,47.4h0a.46.46,0,0,0,.2.05.46.46,0,0,0,.21-.05h0l17.81-8.81a.51.51,0,0,0,.28-.45V21.85l6-3.26a.52.52,0,0,0,.26-.45A.51.51,0,0,0,49.28,17.7ZM32.19,4.1l15.52,7.69-5.16,2.66L26.66,6.79Zm-7,19.33L9.47,15.17l16-7.82L41.44,15ZM2.25,11.37l15.5-7.76L24.37,6.8l-16,7.79Zm6.1,4.34L24.05,24,18.2,27,7.32,21.46,2.06,18.78Zm-.68,7.05L18,28a.47.47,0,0,0,.46,0l6.11-3.15V46.15L7.67,37.91ZM42.36,37.83,25.54,46.15V24.77L31.66,28a.49.49,0,0,0,.47,0l10.23-5.6Zm.21-16.69L31.88,27l-5.66-3,16.34-8.43L48,18.18Z" fill="#231f20"/></g><g id="f6cfd7b9-b1ec-4bab-a1a7-ea8834d1bb39" data-name="LABELS"><text transform="translate(0.01 55.01)" font-size="6" fill="#231f20" font-family="Roboto-Regular, Roboto">b<tspan x="3.37" y="0" letter-spacing="-0.01em">o</tspan><tspan x="6.73" y="0">x-open</tspan></text></g></svg>
